logo/BOSS.svg

<?xml version="1.0" encoding="UTF-8" standalone="no"?>
<!-- Created with Inkscape (http://www.inkscape.org/) -->

<svg
   xmlns:dc="http://purl.org/dc/elements/1.1/"
   xmlns:cc="http://creativecommons.org/ns#"
   xmlns:rdf="http://www.w3.org/1999/02/22-rdf-syntax-ns#"
   xmlns:svg="http://www.w3.org/2000/svg"
   xmlns="http://www.w3.org/2000/svg"
   xmlns:sodipodi="http://sodipodi.sourceforge.net/DTD/sodipodi-0.dtd"
   xmlns:inkscape="http://www.inkscape.org/namespaces/inkscape"
   version="1.1"
   id="svg2"
   xml:space="preserve"
   width="153.92497"
   height="77.006981"
   viewBox="0 0 153.92497 77.006981"
   sodipodi:docname="BOSS.svg"
   inkscape:version="0.92.3 (2405546, 2018-03-11)"
   inkscape:export-filename="/home/cornelius/Bilder/Logo/BOSS.png"
   inkscape:export-xdpi="200.61026"
   inkscape:export-ydpi="200.61026"><metadata
     id="metadata8"><rdf:RDF><cc:Work
         rdf:about=""><dc:format>image/svg+xml</dc:format><dc:type
           rdf:resource="http://purl.org/dc/dcmitype/StillImage" /><dc:title></dc:title></cc:Work></rdf:RDF></metadata><defs
     id="defs6" /><sodipodi:namedview
     pagecolor="#ffffff"
     bordercolor="#666666"
     borderopacity="1"
     objecttolerance="10"
     gridtolerance="10"
     guidetolerance="10"
     inkscape:pageopacity="0"
     inkscape:pageshadow="2"
     inkscape:window-width="1868"
     inkscape:window-height="1016"
     id="namedview4"
     showgrid="false"
     inkscape:zoom="4"
     inkscape:cx="122.38453"
     inkscape:cy="67.523494"
     inkscape:window-x="52"
     inkscape:window-y="27"
     inkscape:window-maximized="1"
     inkscape:current-layer="g12"
     showguides="true"
     inkscape:guide-bbox="true"
     fit-margin-left="5"
     fit-margin-top="5"
     fit-margin-right="5"
     fit-margin-bottom="5"><sodipodi:guide
       position="4.9563644,92.895865"
       orientation="1,0"
       id="guide845"
       inkscape:locked="false" /><sodipodi:guide
       position="148.97097,53.04622"
       orientation="1,0"
       id="guide851"
       inkscape:locked="false" /></sodipodi:namedview><g
     id="g10"
     inkscape:groupmode="layer"
     inkscape:label="ink_ext_XXXXXX"
     transform="matrix(1.3333333,0,0,-1.3333333,1.839123,78.147902)"><g
       id="g12"
       transform="scale(0.1)"
       style="display:inline"><g
   id="g14"
   transform="matrix(10.353663,0,0,10.353663,-4.2913723,-5.3575374)"
   style="fill:#388442;fill-opacity:1"><text
   transform="matrix(1,1e-8,-1e-8,-1,2,5.15625)"
   style="font-style:normal;font-variant:normal;font-weight:normal;font-stretch:normal;font-size:15px;font-family:Manjari;-inkscape-font-specification:Manjari;writing-mode:lr-tb;fill:#388442;fill-opacity:1;fill-rule:nonzero;stroke:none"
   id="text18"><tspan
     x="0"
     y="0"
     sodipodi:role="line"
     id="tspan16">Suchen   Finden</tspan></text>




</g><g
   aria-label="BOSS"
   transform="matrix(1.0093894,0,0,-0.99435547,-0.04372098,-1.0117755)"
   style="font-style:normal;font-variant:normal;font-weight:normal;font-stretch:normal;font-size:416.32217407px;line-height:125%;font-family:'DejaVu Sans';-inkscape-font-specification:'DejaVu Sans';letter-spacing:0px;word-spacing:0px;fill:#86cf3c;fill-opacity:1;stroke:none;stroke-width:10.4080534px;stroke-linecap:butt;stroke-linejoin:miter;stroke-opacity:1"
   id="text849"><path
     d="m 64.592398,-388.6922 v 111.19543 h 65.863472 q 33.13501,0 48.99103,-13.61992 16.05931,-13.82319 16.05931,-42.07943 0,-28.45953 -16.05931,-41.87616 -15.85602,-13.61992 -48.99103,-13.61992 z m 0,-124.81533 v 91.47704 h 60.781412 q 30.08578,0 44.72211,-11.18053 14.83961,-11.38381 14.83961,-34.55799 0,-22.97091 -14.83961,-34.35472 -14.63633,-11.3838 -44.72211,-11.3838 z M 23.529371,-547.2524 H 128.42304 q 46.95822,0 72.36851,19.5151 25.41029,19.51511 25.41029,55.49607 0,27.84968 -13.01007,44.31555 -13.01007,16.46587 -38.21708,20.53151 30.28907,6.50504 46.95822,27.23983 16.87243,20.53152 16.87243,51.43043 0,40.65646 -27.6464,62.81423 -27.64639,22.15777 -78.67025,22.15777 H 23.529371 Z"
     style="fill:#86cf3c;fill-opacity:1;stroke-width:10.4080534px"
     id="path830"
     inkscape:connector-curvature="0" /><path
     d="m 424.80866,-519.40272 q -44.72211,0 -71.14881,33.3383 -26.22342,33.3383 -26.22342,90.86719 0,57.32561 26.22342,90.66391 26.4267,33.3383 71.14881,33.3383 44.72211,0 70.74225,-33.3383 26.22341,-33.3383 26.22341,-90.66391 0,-57.52889 -26.22341,-90.86719 -26.02014,-33.3383 -70.74225,-33.3383 z m 0,-33.3383 q 63.83065,0 102.04772,42.89257 38.21708,42.68928 38.21708,114.65122 0,71.75866 -38.21708,114.65122 -38.21707,42.68929 -102.04772,42.68929 -64.03393,0 -102.45428,-42.68929 -38.21708,-42.68928 -38.21708,-114.65122 0,-71.96194 38.21708,-114.65122 38.42035,-42.89257 102.45428,-42.89257 z"
     style="fill:#86cf3c;fill-opacity:1;stroke-width:10.4080534px"
     id="path832"
     inkscape:connector-curvature="0" /><path
     d="m 811.24835,-537.29157 v 40.04662 q -23.37747,-11.18053 -44.11226,-16.66915 -20.7348,-5.48862 -40.04662,-5.48862 -33.54158,0 -51.83699,13.01007 -18.09212,13.01006 -18.09212,36.99738 0,20.12495 11.99365,30.49234 12.19694,10.16412 45.94181,16.46587 l 24.80044,5.08206 q 45.9418,8.74114 67.69301,30.89891 21.95449,21.95449 21.95449,58.95187 0,44.11226 -29.67922,66.87988 -29.47593,22.76762 -86.59826,22.76762 -21.54793,0 -45.94181,-4.87878 -24.19059,-4.87877 -50.21073,-14.43304 v -42.28272 q 25.00373,14.02648 48.99104,21.14136 23.98731,7.11488 47.1615,7.11488 35.16784,0 54.27637,-13.8232 19.10854,-13.82319 19.10854,-39.43677 0,-22.36105 -13.8232,-34.96455 -13.61991,-12.60351 -44.92539,-18.90526 l -25.00372,-4.87877 q -45.9418,-9.14771 -66.47332,-28.66281 -20.53151,-19.5151 -20.53151,-54.27638 0,-40.24989 28.25624,-63.42408 28.45952,-23.17418 78.26369,-23.17418 21.34464,0 43.50242,3.86236 22.15777,3.86237 45.33195,11.58709 z"
     style="fill:#86cf3c;fill-opacity:1;stroke-width:10.4080534px"
     id="path834"
     inkscape:connector-curvature="0" /><path
     d="m 1075.5154,-537.29157 v 40.04662 q -23.3775,-11.18053 -44.1123,-16.66915 -20.7348,-5.48862 -40.0466,-5.48862 -33.54158,0 -51.83699,13.01007 -18.09212,13.01006 -18.09212,36.99738 0,20.12495 11.99365,30.49234 12.19694,10.16412 45.94181,16.46587 l 24.80045,5.08206 q 45.9418,8.74114 67.693,30.89891 21.9545,21.95449 21.9545,58.95187 0,44.11226 -29.6792,66.87988 -29.476,22.76762 -86.59829,22.76762 -21.54793,0 -45.94181,-4.87878 -24.19059,-4.87877 -50.21073,-14.43304 v -42.28272 q 25.00373,14.02648 48.99104,21.14136 23.98731,7.11488 47.1615,7.11488 35.16779,0 54.27639,-13.8232 19.1085,-13.82319 19.1085,-39.43677 0,-22.36105 -13.8232,-34.96455 -13.6199,-12.60351 -44.92537,-18.90526 l -25.00372,-4.87877 q -45.9418,-9.14771 -66.47332,-28.66281 -20.53151,-19.5151 -20.53151,-54.27638 0,-40.24989 28.25624,-63.42408 28.45952,-23.17418 78.26369,-23.17418 21.34469,0 43.50239,3.86236 22.1578,3.86237 45.332,11.58709 z"
     style="fill:#86cf3c;fill-opacity:1;stroke-width:10.4080534px"
     id="path836"
     inkscape:connector-curvature="0" /></g>
<rect
   style="fill:#388442;fill-opacity:1;stroke:#388442;stroke-width:11.42171288;stroke-opacity:1"
   id="rect860"
   width="162.23251"
   height="58.959656"
   x="58.148495"
   y="-595.70984"
   transform="matrix(0.51575295,-0.85673735,-0.8519156,-0.52367911,0,0)"
   rx="18.64249" /><path
   style="fill:#388442;fill-opacity:1;fill-rule:nonzero;stroke:none;stroke-width:0.13333333"
   d="m 69.107422,39.753906 c -0.3357,1.017495 -1.155893,2.018539 -1.820313,2.962891 -1.003452,1.426225 -2.125681,2.863606 -3.58789,3.849609 a 9.2697263,5.3474949 0 0 1 -0.0078,0.0059 9.2697263,5.3474949 0 0 1 -7.478515,2.195312 9.2697263,5.3474949 0 0 1 -0.494141,-0.01367 c -0.143372,-0.0027 -0.287752,-0.0052 -0.417969,-0.01367 -0.0042,-2.75e-4 -0.0075,2.81e-4 -0.01172,0 A 9.2697263,5.3474949 0 0 1 47.183606,44.5977 c -0.03798,-0.01722 -0.07016,-0.02943 -0.07227,-0.01367 -0.04896,0.36726 0.838295,1.881899 2.621094,3.302735 0.623001,0.496513 1.490619,0.932191 2.33789,1.396484 0.848775,0.473049 1.82549,0.68373 2.884766,0.84375 1.944411,0.293732 4.149478,0.178546 6.169922,-0.521484 2.018109,-0.699222 3.852091,-1.982745 5.119141,-3.679688 1.273158,-1.705125 2.7464,-4.299407 2.863281,-6.171875 z"
   transform="matrix(7.5000002,0,0,-7.5000002,0,650.00002)"
   id="path20"
   inkscape:connector-curvature="0" /></g></g></svg>

<?xml version="1.0" encoding="UTF-8" standalone="no"?>
<!-- Created with Inkscape (http://www.inkscape.org/) -->

<svg
   xmlns:dc="http://purl.org/dc/elements/1.1/"
   xmlns:cc="http://creativecommons.org/ns#"
   xmlns:rdf="http://www.w3.org/1999/02/22-rdf-syntax-ns#"
   xmlns:svg="http://www.w3.org/2000/svg"
   xmlns="http://www.w3.org/2000/svg"
   xmlns:sodipodi="http://sodipodi.sourceforge.net/DTD/sodipodi-0.dtd"
   xmlns:inkscape="http://www.inkscape.org/namespaces/inkscape"
   version="1.1"
   id="svg2"
   xml:space="preserve"
   width="152"
   height="86.666664"
   viewBox="0 0 152 86.666664"
   sodipodi:docname="BOSS.svg"
   inkscape:version="0.92.3 (2405546, 2018-03-11)"
   inkscape:export-filename="/home/cornelius/Bilder/Logo/BOSS.png"
   inkscape:export-xdpi="200.61026"
   inkscape:export-ydpi="200.61026"><metadata
     id="metadata8"><rdf:RDF><cc:Work
         rdf:about=""><dc:format>image/svg+xml</dc:format><dc:type
           rdf:resource="http://purl.org/dc/dcmitype/StillImage" /><dc:title /></cc:Work></rdf:RDF></metadata><defs
     id="defs6" /><sodipodi:namedview
     pagecolor="#ffffff"
     bordercolor="#666666"
     borderopacity="1"
     objecttolerance="10"
     gridtolerance="10"
     guidetolerance="10"
     inkscape:pageopacity="0"
     inkscape:pageshadow="2"
     inkscape:window-width="1868"
     inkscape:window-height="1016"
     id="namedview4"
     showgrid="false"
     inkscape:zoom="22.627417"
     inkscape:cx="58.419317"
     inkscape:cy="31.251239"
     inkscape:window-x="52"
     inkscape:window-y="27"
     inkscape:window-maximized="1"
     inkscape:current-layer="g12"
     showguides="true"
     inkscape:guide-bbox="true"><sodipodi:guide
       position="3.1172414,94.036781"
       orientation="1,0"
       id="guide845"
       inkscape:locked="false" /><sodipodi:guide
       position="147.13185,54.187136"
       orientation="1,0"
       id="guide851"
       inkscape:locked="false" /></sodipodi:namedview><g
     id="g10"
     inkscape:groupmode="layer"
     inkscape:label="ink_ext_XXXXXX"
     transform="matrix(1.3333333,0,0,-1.3333333,0,86.666667)"><g
       id="g12"
       transform="scale(0.1)"
       style="display:inline"><g
   id="g14"
   transform="scale(10)"><text
   transform="matrix(1,1e-8,-1e-8,-1,2,5.15625)"
   style="font-variant:normal;font-weight:normal;font-size:15px;font-family:Arial;-inkscape-font-specification:ArialMT;writing-mode:lr-tb;fill:#000000;fill-opacity:1;fill-rule:nonzero;stroke:none"
   id="text18"><tspan
     x="0"
     y="0"
     sodipodi:role="line"
     id="tspan16">Suchen   Finden</tspan></text>



</g><g
   aria-label="BOSS"
   transform="scale(1.0075313,-0.992525)"
   style="font-style:normal;font-variant:normal;font-weight:normal;font-stretch:normal;font-size:416.32217407px;line-height:125%;font-family:'DejaVu Sans';-inkscape-font-specification:'DejaVu Sans';letter-spacing:0px;word-spacing:0px;fill:#86cf3c;fill-opacity:1;stroke:none;stroke-width:10.4080534px;stroke-linecap:butt;stroke-linejoin:miter;stroke-opacity:1"
   id="text849"><path
     d="m 64.592398,-388.6922 v 111.19543 h 65.863472 q 33.13501,0 48.99103,-13.61992 16.05931,-13.82319 16.05931,-42.07943 0,-28.45953 -16.05931,-41.87616 -15.85602,-13.61992 -48.99103,-13.61992 z m 0,-124.81533 v 91.47704 h 60.781412 q 30.08578,0 44.72211,-11.18053 14.83961,-11.38381 14.83961,-34.55799 0,-22.97091 -14.83961,-34.35472 -14.63633,-11.3838 -44.72211,-11.3838 z M 23.529371,-547.2524 H 128.42304 q 46.95822,0 72.36851,19.5151 25.41029,19.51511 25.41029,55.49607 0,27.84968 -13.01007,44.31555 -13.01007,16.46587 -38.21708,20.53151 30.28907,6.50504 46.95822,27.23983 16.87243,20.53152 16.87243,51.43043 0,40.65646 -27.6464,62.81423 -27.64639,22.15777 -78.67025,22.15777 H 23.529371 Z"
     style="fill:#86cf3c;fill-opacity:1;stroke-width:10.4080534px"
     id="path830" /><path
     d="m 424.80866,-519.40272 q -44.72211,0 -71.14881,33.3383 -26.22342,33.3383 -26.22342,90.86719 0,57.32561 26.22342,90.66391 26.4267,33.3383 71.14881,33.3383 44.72211,0 70.74225,-33.3383 26.22341,-33.3383 26.22341,-90.66391 0,-57.52889 -26.22341,-90.86719 -26.02014,-33.3383 -70.74225,-33.3383 z m 0,-33.3383 q 63.83065,0 102.04772,42.89257 38.21708,42.68928 38.21708,114.65122 0,71.75866 -38.21708,114.65122 -38.21707,42.68929 -102.04772,42.68929 -64.03393,0 -102.45428,-42.68929 -38.21708,-42.68928 -38.21708,-114.65122 0,-71.96194 38.21708,-114.65122 38.42035,-42.89257 102.45428,-42.89257 z"
     style="fill:#86cf3c;fill-opacity:1;stroke-width:10.4080534px"
     id="path832" /><path
     d="m 811.24835,-537.29157 v 40.04662 q -23.37747,-11.18053 -44.11226,-16.66915 -20.7348,-5.48862 -40.04662,-5.48862 -33.54158,0 -51.83699,13.01007 -18.09212,13.01006 -18.09212,36.99738 0,20.12495 11.99365,30.49234 12.19694,10.16412 45.94181,16.46587 l 24.80044,5.08206 q 45.9418,8.74114 67.69301,30.89891 21.95449,21.95449 21.95449,58.95187 0,44.11226 -29.67922,66.87988 -29.47593,22.76762 -86.59826,22.76762 -21.54793,0 -45.94181,-4.87878 -24.19059,-4.87877 -50.21073,-14.43304 v -42.28272 q 25.00373,14.02648 48.99104,21.14136 23.98731,7.11488 47.1615,7.11488 35.16784,0 54.27637,-13.8232 19.10854,-13.82319 19.10854,-39.43677 0,-22.36105 -13.8232,-34.96455 -13.61991,-12.60351 -44.92539,-18.90526 l -25.00372,-4.87877 q -45.9418,-9.14771 -66.47332,-28.66281 -20.53151,-19.5151 -20.53151,-54.27638 0,-40.24989 28.25624,-63.42408 28.45952,-23.17418 78.26369,-23.17418 21.34464,0 43.50242,3.86236 22.15777,3.86237 45.33195,11.58709 z"
     style="fill:#86cf3c;fill-opacity:1;stroke-width:10.4080534px"
     id="path834" /><path
     d="m 1075.5154,-537.29157 v 40.04662 q -23.3775,-11.18053 -44.1123,-16.66915 -20.7348,-5.48862 -40.0466,-5.48862 -33.54158,0 -51.83699,13.01007 -18.09212,13.01006 -18.09212,36.99738 0,20.12495 11.99365,30.49234 12.19694,10.16412 45.94181,16.46587 l 24.80045,5.08206 q 45.9418,8.74114 67.693,30.89891 21.9545,21.95449 21.9545,58.95187 0,44.11226 -29.6792,66.87988 -29.476,22.76762 -86.59829,22.76762 -21.54793,0 -45.94181,-4.87878 -24.19059,-4.87877 -50.21073,-14.43304 v -42.28272 q 25.00373,14.02648 48.99104,21.14136 23.98731,7.11488 47.1615,7.11488 35.16779,0 54.27639,-13.8232 19.1085,-13.82319 19.1085,-39.43677 0,-22.36105 -13.8232,-34.96455 -13.6199,-12.60351 -44.92537,-18.90526 l -25.00372,-4.87877 q -45.9418,-9.14771 -66.47332,-28.66281 -20.53151,-19.5151 -20.53151,-54.27638 0,-40.24989 28.25624,-63.42408 28.45952,-23.17418 78.26369,-23.17418 21.34469,0 43.50239,3.86236 22.1578,3.86237 45.332,11.58709 z"
     style="fill:#86cf3c;fill-opacity:1;stroke-width:10.4080534px"
     id="path836" /></g>
<rect
   style="fill:#388442;fill-opacity:1;stroke:#388442;stroke-width:11.42171288;stroke-opacity:1"
   id="rect860"
   width="162.23251"
   height="58.959656"
   x="58.148495"
   y="-595.70984"
   transform="matrix(0.51575295,-0.85673735,-0.8519156,-0.52367911,0,0)"
   rx="18.64249" /><path
   style="fill:#388442;fill-opacity:1;fill-rule:nonzero;stroke:none;stroke-width:0.13333333"
   d="M 69.107422 39.753906 C 68.771722 40.771401 67.951529 41.772445 67.287109 42.716797 C 66.283657 44.143022 65.161428 45.580403 63.699219 46.566406 A 9.2697263 5.3474949 0 0 1 63.691406 46.572266 A 9.2697263 5.3474949 0 0 1 56.212891 48.767578 A 9.2697263 5.3474949 0 0 1 55.71875 48.753906 C 55.575378 48.751215 55.430998 48.748734 55.300781 48.740234 C 55.296568 48.739959 55.293261 48.740515 55.289062 48.740234 A 9.2697263 5.3474949 0 0 1 47.183594 44.597656 C 47.145615 44.580438 47.11343 44.568221 47.111328 44.583984 C 47.062367 44.951244 47.949623 46.465883 49.732422 47.886719 C 50.355423 48.383232 51.223041 48.81891 52.070312 49.283203 C 52.919087 49.756252 53.895802 49.966933 54.955078 50.126953 C 56.899489 50.420685 59.104556 50.305499 61.125 49.605469 C 63.143109 48.906247 64.977091 47.622724 66.244141 45.925781 C 67.517299 44.220656 68.990541 41.626374 69.107422 39.753906 z "
   transform="matrix(7.5000002,0,0,-7.5000002,0,650.00002)"
   id="path20" /></g></g></svg>
